img/atom.svg

<?xml version="1.0" encoding="UTF-8"?>
<svg width="65px" height="65px" viewBox="0 0 83 83" version="1.1" xmlns="http://www.w3.org/2000/svg" xmlns:xlink="http://www.w3.org/1999/xlink">
    <!-- Generator: Sketch 41.2 (35397) - http://www.bohemiancoding.com/sketch -->
    <title>atom</title>
    <desc>Created with Sketch.</desc>
    <defs></defs>
    <g stroke="none" stroke-width="1" fill="none" fill-rule="evenodd">
        <g id="icons" transform="translate(0.000000, -318.000000)" fill="#CF4646">
            <g id="atom" transform="translate(0.000000, 318.000000)">
                <path d="M41.5,57 C64.3978715,57 83,50.3399787 83,41.5 C83,32.6600213 64.3978715,26 41.5,26 C18.6021285,26 0,32.6600213 0,41.5 C0,50.3399787 18.6021285,57 41.5,57 Z M41.5,55 C19.6628068,55 2,48.6762791 2,41.5 C2,34.3237209 19.6628068,28 41.5,28 C63.3371932,28 81,34.3237209 81,41.5 C81,48.6762791 63.3371932,55 41.5,55 Z" id="Oval-3"></path>
                <path d="M57,41.5 C57,18.6021285 50.3399787,0 41.5,0 C32.6600213,0 26,18.6021285 26,41.5 C26,64.3978715 32.6600213,83 41.5,83 C50.3399787,83 57,64.3978715 57,41.5 Z M55,41.5 C55,63.3371932 48.6762791,81 41.5,81 C34.3237209,81 28,63.3371932 28,41.5 C28,19.6628068 34.3237209,2 41.5,2 C48.6762791,2 55,19.6628068 55,41.5 Z" id="Oval-3-Copy"></path>
                <path d="M52.4601551,52.4601551 C68.6513953,36.2689149 77.0957403,18.4058775 70.8449314,12.1550686 C64.5941225,5.9042597 46.7310851,14.3486047 30.5398449,30.5398449 C14.3486047,46.7310851 5.9042597,64.5941225 12.1550686,70.8449314 C18.4058775,77.0957403 36.2689149,68.6513953 52.4601551,52.4601551 Z M51.0459415,51.0459415 C35.6047141,66.4871689 18.6436777,74.5051134 13.5692821,69.4307179 C8.49488656,64.3563223 16.5128311,47.3952859 31.9540585,31.9540585 C47.3952859,16.5128311 64.3563223,8.49488656 69.4307179,13.5692821 C74.5051134,18.6436777 66.4871689,35.6047141 51.0459415,51.0459415 Z" id="Oval-3-Copy-3"></path>
                <path d="M52.4601551,30.5398449 C36.2689149,14.3486047 18.4058775,5.9042597 12.1550686,12.1550686 C5.9042597,18.4058775 14.3486047,36.2689149 30.5398449,52.4601551 C46.7310851,68.6513953 64.5941225,77.0957403 70.8449314,70.8449314 C77.0957403,64.5941225 68.6513953,46.7310851 52.4601551,30.5398449 Z M51.0459415,31.9540585 C66.4871689,47.3952859 74.5051134,64.3563223 69.4307179,69.4307179 C64.3563223,74.5051134 47.3952859,66.4871689 31.9540585,51.0459415 C16.5128311,35.6047141 8.49488656,18.6436777 13.5692821,13.5692821 C18.6436777,8.49488656 35.6047141,16.5128311 51.0459415,31.9540585 Z" id="Oval-3-Copy-2"></path>
                <path d="M41.5,52 C47.2989899,52 52,47.2989899 52,41.5 C52,35.7010101 47.2989899,31 41.5,31 C35.7010101,31 31,35.7010101 31,41.5 C31,47.2989899 35.7010101,52 41.5,52 Z M41.5,50 C36.8055796,50 33,46.1944204 33,41.5 C33,36.8055796 36.8055796,33 41.5,33 C46.1944204,33 50,36.8055796 50,41.5 C50,46.1944204 46.1944204,50 41.5,50 Z" id="Oval-4"></path>
                <path d="M47.5,41 C47.5,37.9624339 45.0375661,35.5 42,35.5 C41.4477153,35.5 41,35.9477153 41,36.5 C41,37.0522847 41.4477153,37.5 42,37.5 C43.9329966,37.5 45.5,39.0670034 45.5,41 C45.5,41.5522847 45.9477153,42 46.5,42 C47.0522847,42 47.5,41.5522847 47.5,41 Z" id="Oval-4-Copy"></path>
            </g>
        </g>
    </g>
</svg>

<?xml version="1.0" encoding="UTF-8"?>
<svg xmlns="http://www.w3.org/2000/svg" width="65" height="65" viewBox="0 0 83 83">
  <g fill="#CF4646" fill-rule="evenodd">
    <path d="M41.5 57C64.4 57 83 50.34 83 41.5S64.4 26 41.5 26 0 32.66 0 41.5 18.6 57 41.5 57zm0-2C19.66 55 2 48.68 2 41.5S19.66 28 41.5 28 81 34.32 81 41.5 63.34 55 41.5 55z"/>
    <path d="M57 41.5C57 18.6 50.34 0 41.5 0S26 18.6 26 41.5 32.66 83 41.5 83 57 64.4 57 41.5zm-2 0C55 63.34 48.68 81 41.5 81S28 63.34 28 41.5 34.32 2 41.5 2 55 19.66 55 41.5z"/>
    <path d="M52.46 52.46c16.2-16.2 24.64-34.05 18.38-40.3-6.25-6.26-24.1 2.2-40.3 18.38-16.2 16.2-24.64 34.05-18.38 40.3 6.25 6.26 24.1-2.2 40.3-18.38zm-1.4-1.4C35.6 66.48 18.63 74.5 13.56 69.42c-5.08-5.07 2.94-22.03 18.4-37.48C47.4 16.5 64.36 8.5 69.4 13.57c5.08 5.07-2.94 22.03-18.38 37.48z"/>
    <path d="M52.46 30.54C36.26 14.34 18.4 5.9 12.16 12.16c-6.26 6.25 2.2 24.1 18.38 40.3 16.2 16.2 34.05 24.64 40.3 18.38 6.26-6.25-2.2-24.1-18.38-40.3zm-1.4 1.4C66.48 47.4 74.5 64.37 69.42 69.44c-5.07 5.08-22.03-2.94-37.48-18.4C16.5 35.6 8.5 18.64 13.57 13.6c5.07-5.1 22.03 2.9 37.48 18.35z"/>
    <path d="M41.5 52C47.3 52 52 47.3 52 41.5S47.3 31 41.5 31 31 35.7 31 41.5 35.7 52 41.5 52zm0-2c-4.7 0-8.5-3.8-8.5-8.5s3.8-8.5 8.5-8.5 8.5 3.8 8.5 8.5-3.8 8.5-8.5 8.5z"/>
    <path d="M47.5 41c0-3.04-2.46-5.5-5.5-5.5-.55 0-1 .45-1 1s.45 1 1 1c1.93 0 3.5 1.57 3.5 3.5 0 .55.45 1 1 1s1-.45 1-1z"/>
  </g>
</svg>
